;FLAVOR:UltiGCode
;TIME:503
;MATERIAL:1069
;MATERIAL2:0
;NOZZLE_DIAMETER:0.4
;Generated with Cura_SteamEngine 3.4.1
M82 ;absolute extrusion mode

G92 E0
G10
;LAYER_COUNT:14
;LAYER:0
M107
G0 F3600 X91.864 Y89.067 Z0.3
;TYPE:SKIRT
G11
G1 F1800 X92.256 Y88.701 E0.06436
G1 X92.698 Y88.398 E0.12866
G1 X93.181 Y88.163 E0.19312
G1 X93.692 Y88.003 E0.25737
G1 X94.222 Y87.92 E0.32175
G1 X94.509 Y87.909 E0.35621
G1 X128.491 Y87.91 E4.43405
G1 X129.026 Y87.95 E4.49843
G1 X129.549 Y88.069 E4.5628
G1 X130.048 Y88.264 E4.62709
G1 X130.513 Y88.532 E4.69149
G1 X130.933 Y88.865 E4.75581
G1 X131.299 Y89.257 E4.82017
G1 X131.603 Y89.699 E4.88454
G1 X131.837 Y90.182 E4.94895
G1 X131.997 Y90.693 E5.0132
G1 X132.08 Y91.223 E5.07758
G1 X132.091 Y91.51 E5.11204
G1 X132.091 Y131.491 E9.90976
G1 X132.051 Y132.026 E9.97414
G1 X131.932 Y132.549 E10.0385
G1 X131.737 Y133.048 E10.10279
G1 X131.469 Y133.513 E10.1672
G1 X131.136 Y133.933 E10.23152
G1 X130.744 Y134.299 E10.29587
G1 X130.302 Y134.602 E10.36018
G1 X129.819 Y134.837 E10.42464
G1 X129.308 Y134.997 E10.48889
G1 X128.778 Y135.08 E10.55327
G1 X128.491 Y135.091 E10.58773
G1 X94.509 Y135.091 E14.66557
G1 X93.974 Y135.051 E14.72995
G1 X93.451 Y134.932 E14.79432
G1 X92.952 Y134.737 E14.85861
G1 X92.487 Y134.469 E14.92301
G1 X92.067 Y134.136 E14.98733
G1 X91.701 Y133.744 E15.05169
G1 X91.398 Y133.302 E15.11599
G1 X91.163 Y132.819 E15.18045
G1 X91.003 Y132.308 E15.2447
G1 X90.92 Y131.778 E15.30908
G1 X90.909 Y131.491 E15.34354
G1 X90.909 Y91.509 E20.14138
G1 X90.949 Y90.974 E20.20576
G1 X91.068 Y90.451 E20.27013
G1 X91.263 Y89.952 E20.33442
G1 X91.531 Y89.487 E20.39882
G1 X91.864 Y89.067 E20.46314
G0 F3600 X92.258 Y89.234
G1 F1800 X92.645 Y88.908 E20.52386
G1 X93.078 Y88.647 E20.58453
G1 X93.546 Y88.457 E20.64514
G1 X94.039 Y88.344 E20.70584
G1 X94.509 Y88.309 E20.76239
G1 X128.491 Y88.31 E24.84023
G1 X128.995 Y88.35 E24.9009
G1 X129.486 Y88.469 E24.96153
G1 X129.953 Y88.664 E25.02226
G1 X130.383 Y88.929 E25.08287
G1 X130.766 Y89.26 E25.14362
G1 X131.092 Y89.646 E25.20424
G1 X131.353 Y90.079 E25.26491
G1 X131.543 Y90.547 E25.32553
G1 X131.656 Y91.04 E25.38622
G1 X131.691 Y91.51 E25.44278
G1 X131.691 Y131.491 E30.2405
G1 X131.651 Y131.995 E30.30117
G1 X131.532 Y132.486 E30.36179
G1 X131.338 Y132.953 E30.42248
G1 X131.072 Y133.383 E30.48315
G1 X130.742 Y133.766 E30.54382
G1 X130.355 Y134.092 E30.60454
G1 X129.922 Y134.353 E30.66521
G1 X129.454 Y134.543 E30.72582
G1 X128.961 Y134.656 E30.78651
G1 X128.491 Y134.691 E30.84307
G1 X94.509 Y134.691 E34.92091
G1 X94.005 Y134.651 E34.98158
G1 X93.514 Y134.532 E35.04221
G1 X93.047 Y134.338 E35.10289
G1 X92.617 Y134.072 E35.16356
G1 X92.234 Y133.742 E35.22423
G1 X91.908 Y133.355 E35.28495
G1 X91.647 Y132.922 E35.34562
G1 X91.457 Y132.454 E35.40623
G1 X91.344 Y131.961 E35.46693
G1 X91.309 Y131.491 E35.52348
G1 X91.309 Y91.509 E40.32132
G1 X91.349 Y91.005 E40.38199
G1 X91.468 Y90.514 E40.44262
G1 X91.662 Y90.047 E40.5033
G1 X91.928 Y89.617 E40.56398
G1 X92.258 Y89.234 E40.62464
G10
G0 F3600 X95.114 Y90.835
G0 X95.114 Y92.114
G0 X127.83 Y130.83
G0 X127.9 Y130.9
;TYPE:WALL-INNER
G11
G1 F1800 X95.1 Y130.9 E44.56064
G1 X95.1 Y92.1 E49.21664
G1 X127.9 Y92.1 E53.15264
G1 X127.9 Y130.9 E57.80864
G0 F3600 X128.3 Y131.3
;TYPE:WALL-OUTER
G1 F1800 X94.7 Y131.3 E61.84064
G1 X94.7 Y91.7 E66.59264
G1 X128.3 Y91.7 E70.62464
G1 X128.3 Y131.3 E75.37664
G0 F3600 X128.1 Y131.3
G0 X127.83 Y130.83
G0 X127.51 Y130.51
;TYPE:SKIN
G1 F1800 X95.49 Y130.51 E79.21904
G1 X95.49 Y92.49 E83.78144
G1 X127.51 Y92.49 E87.62384
G1 X127.51 Y130.51 E92.18624
G0 F3600 X95.822 Y130.329
G1 F1800 X95.669 Y130.176 E92.21221
G0 F3600 X95.669 Y129.61
G1 F1800 X96.388 Y130.329 E92.33423
G1 X96.458 Y130.399
G0 F3600 X96.954 Y130.329
G1 F1800 X95.669 Y129.044 E92.5523
G1 X95.599 Y128.974
G0 F3600 X95.669 Y128.479
G1 F1800 X97.519 Y130.329 E92.86625
G1 X97.589 Y130.399
G0 F3600 X98.085 Y130.329
G1 F1800 X95.669 Y127.913 E93.27626
G1 X95.599 Y127.843
G0 F3600 X95.669 Y127.347
G1 F1800 X98.651 Y130.329 E93.78233
G1 X98.721 Y130.399
G0 F3600 X99.216 Y130.329
G1 F1800 X95.669 Y126.782 E94.38427
G1 X95.599 Y126.712
G0 F3600 X95.669 Y126.216
G1 F1800 X99.782 Y130.329 E95.08227
G1 X99.852 Y130.399
G0 F3600 X100.348 Y130.329
G1 F1800 X95.669 Y125.65 E95.87632
G1 X95.599 Y125.58
G0 F3600 X95.669 Y125.085
G1 F1800 X100.914 Y130.329 E96.76634
G1 X100.984 Y130.399
G0 F3600 X101.479 Y130.329
G1 F1800 X95.669 Y124.519 E97.75233
G1 X95.599 Y124.449
G0 F3600 X95.669 Y123.953
G1 F1800 X102.045 Y130.329 E98.83438
G1 X102.115 Y130.399
G0 F3600 X102.611 Y130.329
G1 F1800 X95.669 Y123.388 E100.01239
G1 X95.599 Y123.318
G0 F3600 X95.669 Y122.822
G1 F1800 X103.176 Y130.329 E101.28637
G1 X103.246 Y130.399
G0 F3600 X103.742 Y130.329
G1 F1800 X95.669 Y122.256 E102.6564
G1 X95.599 Y122.186
G0 F3600 X95.669 Y121.69
G1 F1800 X104.308 Y130.329 E104.12249
G1 X104.378 Y130.399
G0 F3600 X104.873 Y130.329
G1 F1800 X95.669 Y121.125 E105.68446
G1 X95.599 Y121.055
G0 F3600 X95.669 Y120.559
G1 F1800 X105.439 Y130.329 E107.34248
G1 X105.509 Y130.399
G0 F3600 X106.005 Y130.329
G1 F1800 X95.669 Y119.993 E109.09656
G1 X95.599 Y119.923
G0 F3600 X95.669 Y119.428
G1 F1800 X106.57 Y130.329 E110.94652
G1 X106.64 Y130.399
G0 F3600 X107.136 Y130.329
G1 F1800 X95.669 Y118.862 E112.89254
G1 X95.599 Y118.792
G0 F3600 X95.669 Y118.296
G1 F1800 X107.702 Y130.329 E114.93461
G1 X107.772 Y130.399
G0 F3600 X108.267 Y130.329
G1 F1800 X95.669 Y117.731 E117.07256
G1 X95.599 Y117.661
G0 F3600 X95.669 Y117.165
G1 F1800 X108.833 Y130.329 E119.30656
G1 X108.903 Y130.399
G0 F3600 X109.399 Y130.329
G1 F1800 X95.669 Y116.599 E121.63662
G1 X95.599 Y116.529
G0 F3600 X95.669 Y116.034
G1 F1800 X109.965 Y130.329 E124.06265
G1 X110.035 Y130.399
G0 F3600 X110.53 Y130.329
G1 F1800 X95.669 Y115.468 E126.58464
G1 X95.599 Y115.398
G0 F3600 X95.669 Y114.902
G1 F1800 X111.096 Y130.329 E129.20269
G1 X111.166 Y130.399
G0 F3600 X111.662 Y130.329
G1 F1800 X95.669 Y114.337 E131.91671
G1 X95.599 Y114.267
G0 F3600 X95.669 Y113.771
G1 F1800 X112.227 Y130.329 E134.72669
G1 X112.297 Y130.399
G0 F3600 X112.793 Y130.329
G1 F1800 X95.669 Y113.205 E137.63273
G1 X95.599 Y113.135
G0 F3600 X95.669 Y112.639
G1 F1800 X113.359 Y130.329 E140.63483
G1 X113.429 Y130.399
G0 F3600 X113.924 Y130.329
G1 F1800 X95.669 Y112.074 E143.7328
G1 X95.599 Y112.004
G0 F3600 X95.669 Y111.508
G1 F1800 X114.49 Y130.329 E146.92683
G1 X114.56 Y130.399
G0 F3600 X115.056 Y130.329
G1 F1800 X95.669 Y110.942 E150.21691
G1 X95.599 Y110.872
G0 F3600 X95.669 Y110.377
G1 F1800 X115.621 Y130.329 E153.60288
G1 X115.691 Y130.399
G0 F3600 X116.187 Y130.329
G1 F1800 X95.669 Y109.811 E157.0849
G1 X95.599 Y109.741
G0 F3600 X95.669 Y109.245
G1 F1800 X116.753 Y130.329 E160.66297
G1 X116.823 Y130.399
G0 F3600 X117.318 Y130.329
G1 F1800 X95.669 Y108.68 E164.33693
G1 X95.599 Y108.61
G0 F3600 X95.669 Y108.114
G1 F1800 X117.884 Y130.329 E168.10694
G1 X117.954 Y130.399
G0 F3600 X118.45 Y130.329
G1 F1800 X95.669 Y107.548 E171.97301
G1 X95.599 Y107.478
G0 F3600 X95.669 Y106.983
G1 F1800 X119.015 Y130.329 E175.93495
G1 X119.085 Y130.399
G0 F3600 X119.581 Y130.329
G1 F1800 X95.669 Y106.417 E179.99295
G1 X95.599 Y106.347
G0 F3600 X95.669 Y105.851
G1 F1800 X120.147 Y130.329 E184.14701
G1 X120.217 Y130.399
G0 F3600 X120.713 Y130.329
G1 F1800 X95.669 Y105.286 E188.39703
G1 X95.599 Y105.216
G0 F3600 X95.669 Y104.72
G1 F1800 X121.278 Y130.329 E192.74302
G1 X121.348 Y130.399
G0 F3600 X121.844 Y130.329
G1 F1800 X95.669 Y104.154 E197.18507
G1 X95.599 Y104.084
G0 F3600 X95.669 Y103.589
G1 F1800 X122.41 Y130.329 E201.72308
G1 X122.48 Y130.399
G0 F3600 X122.975 Y130.329
G1 F1800 X95.669 Y103.023 E206.35706
G1 X95.599 Y102.953
G0 F3600 X95.669 Y102.457
G1 F1800 X123.541 Y130.329 E211.0871
G1 X123.611 Y130.399
G0 F3600 X124.107 Y130.329
G1 F1800 X95.669 Y101.891 E215.91319
G1 X95.599 Y101.821
G0 F3600 X95.669 Y101.326
G1 F1800 X124.672 Y130.329 E220.83516
G1 X124.742 Y130.399
G0 F3600 X125.238 Y130.329
G1 F1800 X95.669 Y100.76 E225.85318
G1 X95.599 Y100.69
G0 F3600 X95.669 Y100.194
G1 F1800 X125.804 Y130.329 E230.96726
G1 X125.874 Y130.399
G0 F3600 X126.369 Y130.329
G1 F1800 X95.669 Y99.629 E236.17723
G1 X95.599 Y99.559
G0 F3600 X95.669 Y99.063
G1 F1800 X126.935 Y130.329 E241.48324
G1 X127.005 Y130.399
G0 F3600 X127.33 Y130.158
G1 F1800 X95.669 Y98.497 E246.85629
G1 X95.599 Y98.427
G0 F3600 X95.669 Y97.932
G1 F1800 X127.33 Y129.592 E252.22926
G1 X127.4 Y129.662
G0 F3600 X127.33 Y129.027
G1 F1800 X95.669 Y97.366 E257.60231
G1 X95.599 Y97.296
G0 F3600 X95.669 Y96.8
G1 F1800 X127.33 Y128.461 E262.97536
G1 X127.4 Y128.531
G0 F3600 X127.33 Y127.895
G1 F1800 X95.669 Y96.235 E268.34832
G1 X95.599 Y96.165
G0 F3600 X95.669 Y95.669
G1 F1800 X127.33 Y127.33 E273.72137
G1 X127.4 Y127.4
G0 F3600 X127.33 Y126.764
G1 F1800 X95.669 Y95.103 E279.09442
G1 X95.599 Y95.033
G0 F3600 X95.669 Y94.538
G1 F1800 X127.33 Y126.198 E284.46739
G1 X127.4 Y126.268
G0 F3600 X127.33 Y125.633
G1 F1800 X95.669 Y93.972 E289.84044
G1 X95.599 Y93.902
G0 F3600 X95.669 Y93.406
G1 F1800 X127.33 Y125.067 E295.21349
G1 X127.4 Y125.137
G0 F3600 X127.33 Y124.501
G1 F1800 X95.669 Y92.84 E300.58654
G1 X95.599 Y92.77
G0 F3600 X96.063 Y92.669
G1 F1800 X127.33 Y123.936 E305.89272
G1 X127.4 Y124.006
G0 F3600 X127.33 Y123.37
G1 F1800 X96.629 Y92.669 E311.10286
G1 X96.559 Y92.599
G0 F3600 X97.195 Y92.669
G1 F1800 X127.33 Y122.804 E316.21693
G1 X127.4 Y122.874
G0 F3600 X127.33 Y122.238
G1 F1800 X97.761 Y92.669 E321.23496
G1 X97.691 Y92.599
G0 F3600 X98.326 Y92.669
G1 F1800 X127.33 Y121.673 E326.1571
G1 X127.4 Y121.743
G0 F3600 X127.33 Y121.107
G1 F1800 X98.892 Y92.669 E330.98319
G1 X98.822 Y92.599
G0 F3600 X99.458 Y92.669
G1 F1800 X127.33 Y120.541 E335.71323
G1 X127.4 Y120.611
G0 F3600 X127.33 Y119.976
G1 F1800 X100.023 Y92.669 E340.34738
G1 X99.953 Y92.599
G0 F3600 X100.589 Y92.669
G1 F1800 X127.33 Y119.41 E344.88548
G1 X127.4 Y119.48
G0 F3600 X127.33 Y118.844
G1 F1800 X101.155 Y92.669 E349.32752
G1 X101.085 Y92.599
G0 F3600 X101.72 Y92.669
G1 F1800 X127.33 Y118.279 E353.67368
G1 X127.4 Y118.349
G0 F3600 X127.33 Y117.713
G1 F1800 X102.286 Y92.669 E357.92379
G1 X102.216 Y92.599
G0 F3600 X102.852 Y92.669
G1 F1800 X127.33 Y117.147 E362.07784
G1 X127.4 Y117.217
G0 F3600 X127.33 Y116.582
G1 F1800 X103.417 Y92.669 E366.13601
G1 X103.347 Y92.599
G0 F3600 X103.983 Y92.669
G1 F1800 X127.33 Y116.016 E370.09813
G1 X127.4 Y116.086
G0 F3600 X127.33 Y115.45
G1 F1800 X104.549 Y92.669 E373.9642
G1 X104.479 Y92.599
G0 F3600 X105.114 Y92.669
G1 F1800 X127.33 Y114.885 E377.73438
G1 X127.4 Y114.955
G0 F3600 X127.33 Y114.319
G1 F1800 X105.68 Y92.669 E381.4085
G1 X105.61 Y92.599
G0 F3600 X106.246 Y92.669
G1 F1800 X127.33 Y113.753 E384.98658
G1 X127.4 Y113.823
G0 F3600 X127.33 Y113.187
G1 F1800 X106.812 Y92.669 E388.4686
G1 X106.742 Y92.599
G0 F3600 X107.377 Y92.669
G1 F1800 X127.33 Y112.622 E391.85473
G1 X127.4 Y112.692
G0 F3600 X127.33 Y112.056
G1 F1800 X107.943 Y92.669 E395.14482
G1 X107.873 Y92.599
G0 F3600 X108.509 Y92.669
G1 F1800 X127.33 Y111.49 E398.33885
G1 X127.4 Y111.56
G0 F3600 X127.33 Y110.925
G1 F1800 X109.074 Y92.669 E401.43699
G1 X109.004 Y92.599
G0 F3600 X109.64 Y92.669
G1 F1800 X127.33 Y110.359 E404.43908
G1 X127.4 Y110.429
G0 F3600 X127.33 Y109.793
G1 F1800 X110.206 Y92.669 E407.34512
G1 X110.136 Y92.599
G0 F3600 X110.771 Y92.669
G1 F1800 X127.33 Y109.228 E410.15528
G1 X127.4 Y109.298
G0 F3600 X127.33 Y108.662
G1 F1800 X111.337 Y92.669 E412.86938
G1 X111.267 Y92.599
G0 F3600 X111.903 Y92.669
G1 F1800 X127.33 Y108.096 E415.48743
G1 X127.4 Y108.166
G0 F3600 X127.33 Y107.531
G1 F1800 X112.468 Y92.669 E418.00959
G1 X112.398 Y92.599
G0 F3600 X113.034 Y92.669
G1 F1800 X127.33 Y106.965 E420.43571
G1 X127.4 Y107.035
G0 F3600 X127.33 Y106.399
G1 F1800 X113.6 Y92.669 E422.76576
G1 X113.53 Y92.599
G0 F3600 X114.165 Y92.669
G1 F1800 X127.33 Y105.834 E424.99994
G1 X127.4 Y105.904
G0 F3600 X127.33 Y105.268
G1 F1800 X114.731 Y92.669 E427.13806
G1 X114.661 Y92.599
G0 F3600 X115.297 Y92.669
G1 F1800 X127.33 Y104.702 E429.18013
G1 X127.4 Y104.772
G0 F3600 X127.33 Y104.137
G1 F1800 X115.862 Y92.669 E431.12631
G1 X115.792 Y92.599
G0 F3600 X116.428 Y92.669
G1 F1800 X127.33 Y103.571 E432.97644
G1 X127.4 Y103.641
G0 F3600 X127.33 Y103.005
G1 F1800 X116.994 Y92.669 E434.73052
G1 X116.924 Y92.599
G0 F3600 X117.56 Y92.669
G1 F1800 X127.33 Y102.439 E436.38854
G1 X127.4 Y102.509
G0 F3600 X127.33 Y101.874
G1 F1800 X118.125 Y92.669 E437.95068
G1 X118.055 Y92.599
G0 F3600 X118.691 Y92.669
G1 F1800 X127.33 Y101.308 E439.41677
G1 X127.4 Y101.378
G0 F3600 X127.33 Y100.742
G1 F1800 X119.257 Y92.669 E440.7868
G1 X119.187 Y92.599
G0 F3600 X119.822 Y92.669
G1 F1800 X127.33 Y100.177 E442.06095
G1 X127.4 Y100.247
G0 F3600 X127.33 Y99.611
G1 F1800 X120.388 Y92.669 E443.23905
G1 X120.318 Y92.599
G0 F3600 X120.954 Y92.669
G1 F1800 X127.33 Y99.045 E444.32109
G1 X127.4 Y99.115
G0 F3600 X127.33 Y98.48
G1 F1800 X121.519 Y92.669 E445.30725
G1 X121.449 Y92.599
G0 F3600 X122.085 Y92.669
G1 F1800 X127.33 Y97.914 E446.19736
G1 X127.4 Y97.984
G0 F3600 X127.33 Y97.348
G1 F1800 X122.651 Y92.669 E446.99141
G1 X122.581 Y92.599
G0 F3600 X123.216 Y92.669
G1 F1800 X127.33 Y96.783 E447.68958
G1 X127.4 Y96.853
G0 F3600 X127.33 Y96.217
G1 F1800 X123.782 Y92.669 E448.2917
G1 X123.712 Y92.599
G0 F3600 X124.348 Y92.669
G1 F1800 X127.33 Y95.651 E448.79776
G1 X127.4 Y95.721
G0 F3600 X127.33 Y95.086
G1 F1800 X124.913 Y92.669 E449.20794
G1 X124.843 Y92.599
G0 F3600 X125.479 Y92.669
G1 F1800 X127.33 Y94.52 E449.52206
G1 X127.4 Y94.59
G0 F3600 X127.33 Y93.954
G1 F1800 X126.045 Y92.669 E449.74013
G1 X125.975 Y92.599
G0 F3600 X126.611 Y92.669
G1 F1800 X127.33 Y93.389 E449.86224
G1 X127.4 Y93.459
G0 F3600 X127.33 Y92.823
G1 F1800 X127.176 Y92.669 E449.88837
G0 F3600 X127.83 Y130.83
G0 X127.9 Y130.9
;TIME_ELAPSED:134.488646
;LAYER:1
M106 S255
G0 F5400 X127.9 Y130.9 Z0.45
;TYPE:WALL-INNER
G1 F2700 X95.1 Y130.9 E451.85637
G1 X95.1 Y92.1 E454.18437
G1 X127.9 Y92.1 E456.15237
G1 X127.9 Y130.9 E458.48037
G0 F5400 X128.3 Y131.3
;TYPE:WALL-OUTER
G1 F1800 X94.7 Y131.3 E460.49637
G1 X94.7 Y91.7 E462.87237
G1 X128.3 Y91.7 E464.88837
G1 X128.3 Y131.3 E467.26437
G0 F5400 X128.1 Y131.3
G0 X127.83 Y130.83
G0 X127.51 Y130.51
;TYPE:SKIN
G1 F1800 X95.49 Y130.51 E469.18557
G1 X95.49 Y92.49 E471.46677
G1 X127.51 Y92.49 E473.38797
G1 X127.51 Y130.51 E475.66917
G0 F5400 X127.057 Y130.329
G1 F1800 X127.329 Y130.057 E475.69225
G0 F5400 X127.329 Y129.491
G1 F1800 X126.491 Y130.329 E475.76336
G1 X126.421 Y130.399
G0 F5400 X125.925 Y130.329
G1 F1800 X127.329 Y128.926 E475.88245
G1 X127.399 Y128.856
G0 F5400 X127.329 Y128.36
G1 F1800 X125.36 Y130.329 E476.04952
G1 X125.29 Y130.399
G0 F5400 X124.794 Y130.329
G1 F1800 X127.329 Y127.794 E476.26463
G1 X127.399 Y127.724
G0 F5400 X127.329 Y127.229
G1 F1800 X124.228 Y130.329 E476.52771
G1 X124.158 Y130.399
G0 F5400 X123.663 Y130.329
G1 F1800 X127.329 Y126.663 E476.83878
G1 X127.399 Y126.593
G0 F5400 X127.329 Y126.097
G1 F1800 X123.097 Y130.329 E477.19788
G1 X123.027 Y130.399
G0 F5400 X122.531 Y130.329
G1 F1800 X127.329 Y125.531 E477.605
G1 X127.399 Y125.461
G0 F5400 X127.329 Y124.966
G1 F1800 X121.966 Y130.329 E478.06007
G1 X121.896 Y130.399
G0 F5400 X121.4 Y130.329
G1 F1800 X127.329 Y124.4 E478.56316
G1 X127.399 Y124.33
G0 F5400 X127.329 Y123.834
G1 F1800 X120.834 Y130.329 E479.11428
G1 X120.764 Y130.399
G0 F5400 X120.268 Y130.329
G1 F1800 X127.329 Y123.269 E479.71338
G1 X127.399 Y123.199
G0 F5400 X127.329 Y122.703
G1 F1800 X119.703 Y130.329 E480.36047
G1 X119.633 Y130.399
G0 F5400 X119.137 Y130.329
G1 F1800 X127.329 Y122.137 E481.05559
G1 X127.399 Y122.067
G0 F5400 X127.329 Y121.572
G1 F1800 X118.571 Y130.329 E481.79868
G1 X118.501 Y130.399
G0 F5400 X118.006 Y130.329
G1 F1800 X127.329 Y121.006 E482.58977
G1 X127.399 Y120.936
G0 F5400 X127.329 Y120.44
G1 F1800 X117.44 Y130.329 E483.42888
G1 X117.37 Y130.399
G0 F5400 X116.874 Y130.329
G1 F1800 X127.329 Y119.875 E484.31597
G1 X127.399 Y119.805
G0 F5400 X127.329 Y119.309
G1 F1800 X116.309 Y130.329 E485.25105
G1 X116.239 Y130.399
G0 F5400 X115.743 Y130.329
G1 F1800 X127.329 Y118.743 E486.23415
